X:1
T:4 Songs, Op. 51
T:Juni / June
T:4 Songs, Op. 51
T:Amy Marcy Beach
T:3. Juni June 
T:Erich Jansen English text by Isidora Martinez 
T:Creative Commons copyright waiver (CC0 1.0 Universal)
T:Creative Commons copyright waiver (CC0 1.0 Universal)
T:Creative Commons copyright waiver (CC0 1.0 Universal)
T:Creative Commons copyright waiver (CC0 1.0 Universal)
C:Amy Beach
Z:Erich Jansen
Z:Creative Commons copyright waiver (CC0 1.0 Universal)
%%score ( 1 2 3 ) { ( 4 6 ) | 5 }
L:1/8
Q:1/4=120
M:9/8
K:F
V:1 treble nm="Voice"
V:2 treble 
V:3 treble 
V:4 treble nm="Piano"
V:6 treble 
V:5 bass 
V:1
"^Allegro assai." z9 | z2 z[Q:1/4=118] z2 z[Q:1/4=114] z2!mf! A |[Q:1/4=120] d2 c (B3!>(! A2) ^F | %3
w: |O|Ju- ni- ta- ge im|
w: |O|sun- ny days _ of|
 A2 G G3- G!>)! z G |!mf! f3- f e d c2 =B | d3 c2 z z2!p! A |!<(! G A B c3!<)!!p! F2!p! F | %7
w: Son- nen- schein _ Im|flu- * ten- den, wol- ken-|lo- sen! Bunt-|blu- mi- ge Wie- sen und|
w: June di- vine, _ Fresh|beau- * ty each hour dis-|clos- es! Of|Blos- som- ing mead- ows, and|
!<(! G A B c3-!<)! c z A |"^cresc." (AB) c d3 G z G | (AB) c!<(! (d3!<)! e2) z | z2 z!f! f6- | %11
w: blü- hen- der Wein! _ Und|in * der Gär- ten, land-|aus, * land- ein _|Herz-|
w: zeph- yrs be- nign, _ And|in * the gar- dens with|fruit * and vine, _|Hearts-|
 f3"^poco rit."[Q:1/4=114] e3 e[Q:1/4=108] d A |[Q:1/4=104] (A3!>(! c6)!>)! | %13
w: * kir- * schen und|Ro- *|
w: * ease _ _ and|Ro- *|
 F2"^a tempo"[Q:1/4=120] z z2 z z2 z | z9 |"^rall."[Q:1/4=114] z9[Q:1/4=110] | %16
w: sen!|||
w: ses!|||
!pp![Q:1/4=106] A3 (A3- A[Q:1/4=116] ^F) G | %17
w: Herz- kir- * schen und|
w: Heart's- ease _ _ and|
[Q:1/4=120]"^a tempo"!<(! (d3-!<)!!>(! d2 c) B!>)! z ^F | (^F G) A G3- G z!p! G | %19
w: Ro- * * sen, und|blü- hend am Hang _ Re-|
w: Ro- * * ses; a|per- * fume strong _ The|
!<(! (f3-!<)!!>(! fe) d d c =B!>)! | d3 c2 z z2!pp! A |!<(! G A B c3-!<)! c!p!"^cresc." F F | %22
w: se- * * da- duf- ten- de|Re- ben! Die|Näch- te so weich _ und die|
w: mel- * low- ing vine- yards are|giv- ing! The|nights * so lan- g’rous, * the|
 G A B c3- c z!mp! A | A B c d3- G2!mf!!<(! G | A B c (d3!<)!!mf! e2) z | z2!f! A f6- | %26
w: Ta- ge so lang! _ So|hei- ter die Stir- nen, so|hell der Ge- sang! _|So won-|
w: days * so long! _ So|beam- ing the brow, _ _|ring- ing the song. _|Such joy|
!>(! f3"^poco rit."[Q:1/4=116] e3- e2 d!>)! | (A3!<(! c6)!<)! | %28
w: * nig _ das|Le- *|
w: _ but _ in|liv- *|
"^a tempo"!>(! c2!>)! z z2 z z2 z[Q:1/4=120] | z9 |"^rit."[Q:1/4=116] z9[Q:1/4=110][Q:1/4=116] | %31
w: ben!|||
w: ing!|||
 z2!p! B B3 F3 |"^a tempo"[Q:1/4=120] _d6 _A2 F |!<(! B3/2 F/ B!<)! f3- f z z | %34
w: Die Geiss- blatt-|lau- ben voll|heim- lich- em Schall, _|
w: Yon leaf- y|ar- bor all|trem- u- lous there, _|
 z2 _d"^cresc." (d3 _e2) d | c3/2 A/ B!f! f3[Q:1/4=100] B z z |[Q:1/4=120] z9 | %37
w: Voll lei- * sem,|flüs- tern- dem Ko- sen.||
w: Doth sigh as at|night it re- pos- es.||
 z2"^molto rit."[Q:1/4=100] F!>(! f3- f2 =B!>)! |!pp! c6"^a tempo" c2 A[Q:1/4=120] | %39
w: Und je- * der|Luft- hauch ein|
w: Rich bless- * ings|fill all the|
 (GA) B!<(! c3-!<)! c z A |!mp!"^cresc." d3/2 B/ A d3 d2 G |!mf!!<(! (AB) c (d3!<)!!f! e2) z | %42
w: Duf- * tes- schwall, _ Und|ü- ber- all Se- gen, und|ü- * ber- all _|
w: scen- * ted air _ With|rap- ture sur- pass- ing; and|ev’- * ry- where _|
 z2 z!ff! (a6-[Q:1/4=118] |[Q:1/4=116] a2 f)[Q:1/4=114] e3 e[Q:1/4=112] !breath!^c d | %44
w: Herz-|* * kir- * schen und|
w: Heart’s-|* * ease _ _ and|
[Q:1/4=110] g6-[Q:1/4=90] g3 |"^a tempo"[Q:1/4=120] f6- f3- | f3- f z z z2 z | z9 | !fermata!z9 |] %49
w: Ro- *|sen! _|_ _|||
w: Ro- *|ses! _|_ _|||
V:2
 x9 | x9 | x9 | x9 | x9 | x9 | x9 | x9 | x9 | x9 | x9 | x9 | x9 | x9 | x9 | x9 | x9 | x9 | ^FG x7 | %19
w: |||||||||||||||||||
w: |||||||||||||||||||
 x3 f e x4 | x9 | x9 | (GA) x7 | x6 d G G | x9 | x9 | x9 | x9 | x9 | x9 | x9 | x9 | x9 | x9 | x9 | %35
w: ||||||||||||||||
w: ||||* and so||||||||||||
 x9 | x9 | x9 | x9 | x9 | x9 | x9 | x3 f6- | f3 (e3- e^c) z | x9 | x9 | x9 | x9 | x9 |] %49
w: ||||||||||||||
w: ||||||||||||||
V:3
 x9 | x9 | x9 | x9 | x9 | x9 | x9 | x9 | x9 | x9 | x9 | x9 | x9 | x9 | x9 | x9 | x9 | x9 | x9 | %19
 x9 | x9 | x9 | x9 | x9 | x9 | x9 | x9 | x9 | x9 | x9 | x9 | x9 | x9 | x9 | x9 | x9 | x9 | x9 | %38
 x9 | x9 | x9 | x9 | %42
 x6"^rall     -        -      en      -        -      tan      -        -      do" x3 | x9 | x9 | %45
 x9 | x9 | x9 | x9 |] %49
V:4
!f! z [Bda][Bda] z [FBf][FBf] [Fe]!>(![Ff][Fe] | z [Fd][Fd] z [DFB][DFB] z [B,FA]!>)![B,FA] | %2
!p! [B,EG][B,EG][B,EG] [B,EG][B,EG][B,EG] [A,^D^F][A,DF][A,DF] | %3
 [B,EA][B,EA][B,EG] z [B,EG][B,EG] z!<(! [B,E^F][B,EG] | %4
 [=B,=F^G][B,FG][B,FG]!<)! z [F=Be][FBd] z [DFc][DFB] | %5
 z ([F-d]!>(![FA]) ([Ac][G_B][FA]) [Af][Af][FA]!>)! |!pp! [EG][EA][EG] [Gc][Gc][Fc] [Fd][Fd][FA] | %7
!p! [Ec][EA][EG] [Gc][Gc][Fc] [Ff][Fe][F_e] |"_cresc." [^Fd][Fd][FA] [Ad][Ad][Ad] [Gg][Gg][G_e] | %9
 [^Fd][FB][FA] [Ad][Ad][Gd] [Gg][Gd][G^c] |!f! [Ff][Ff][Ff] [FA][FA][FA] [Fe][Fd][FA] | %11
 [=B,FA][B,FA][B,FA]"_poco rit." [B,FA][B,FA][B,FA] [Fe][Fd][FA] | %12
!>(! [EA][EA][EA] [Ec][Ec][Ec] [B,EA][B,EA][B,EA]!>)! | %13
!p! z"^a tempo""^dolce" [A,FA][A,FA] z [Ff][Ff] [Fe][Ff][Fe] | %14
 z [Fd][Fd] [Fc][Fd][Fc]!<(! z [DFc][DF=B] | %15
 [^CF_B]!<)![CFB][CEB]"^rall." z!>(! [CEB][CEA] z [=C_EB][CEA]!>)! | %16
!pp! z [=B,-A][B,D]- [B,DA][B,DA][B,DA] [_B,_D][B,D^F][B,DG] | %17
"^a tempo" z!<(! [B,E][B,E] [B,EG][B,EG][B,EG] z [B,E][A,^D^F] | %18
 z [B,EG][B,EA] z [B,EG][B,EG] z [B,E^F][B,EG]!<)! | %19
!p! [=B,F^G][B,FG][B,FG] z [F=Be][FBd] z [DFc][DFB] | z ([Fd]A- [Ac][GB][FA]) [Af][FA][FA] | %21
 [EG][EA][EG] [Gc][Gc][Fc] [FA]"_cresc."[Fd][FA] | [Ec][EA][EG] [Gc][Gc][Gc] [Ff][Fe][F_e] | %23
 [^Fd][FB][FA] [Ad][Ad][Ad] [Gg][Gg]!<(![G_e] | [^Fd][FB][FA] [Ad][Ad][Gd]!<)! [Gg][Gd][G^c] | %25
!f!!<(! [Ff][Ff][Ff] [FA][FA][FA]!<)!!>(! [Fe][Fd][FA] | %26
 [=B,FA][B,FA][B,FA]!>)! [B,FA]"_poco rit."[B,FA][B,FA] [Fe][Fe][Fd] | %27
 z [EA][EA] z!>(! [Ec][Ec] z [B,E^G][B,EG]!>)! | %28
"^a tempo"!mf! z!mp! (A,[FA]) z [Aa][Aa]!<(! [Ag][Aa][Ag] | %29
 z [Af][Af] [Ae][Af][Ae] z!<)! [A^d][Ad] | %30
 z"^espressivo" [F^Ge][FG=d] [FAf][FAe][FAd]!>(! (c2 =B)!>)! | %31
!pp! [_DF_B][DFB][DFB] [DFB][DFB][DFB] [FBf][FBf][FBf] | %32
"^a tempo" !///-![F_d]3 f3 !//-![Fd]3/2 f3/2 | !///-![F_d]3 f3 !>![FB]!>!F!>![FB] | %34
"_cresc." !///-![FB]3 f3 !//-![FB]3/2 f3/2 | !///-![FB]3 f3!f! [FB]!>![Afa]!>![Bfb] | %36
 (!>![fbf']3- [fbf']_d'b) z2 z | %37
 (f_d"_colla voce""^molto rit."B-!>(! [FB])[FB][FB] [F=B][FB]!>)!!pp![FB] | %38
 !>![EGc]!>![E=A]!>![E_B] !>![Ec]"^a tempo"[Ec][Ec] [Fc][Fd][FA] | %39
 [Ec][EA][EG]!<(! [Gc][Gc][Fc] [Ff][Fe][F_e]!<)! | %40
"_cresc." [^Fd][FB][FA] [Ad][Ad][Ad] [Gg][Gg][G_e] | %41
 [^Fd][FB]!<(![FA] [Ad][Ad][Gd]!<)!!<(! !>![EBde]!>![Ace]!>![GBe]!<)! | %42
!ff!!<(! !>![Adfa][Adfa][Adfa] [FAf][FAf][FAf]!<)!!>(! !>![FAe]"_rall  -     -   en   -     -   tan   -     -   do"!>![FAd]!>![FA] | %43
 !>![=B,FA][B,FA][B,FA] [B,FA][B,FA][B,FA] !>![Fe]"_colla voce"!>![F^c]!>![Fd]!>)! | %44
 [FBd]3 [EBce]3!8va(! [c'e'c'']3 | %45
"_a tempo" [ac'a'][ac'a'][ac'a'] [faf'][faf'][faf'] [eae'][dd']!8va)![fa] | %46
 z [Aca][Aca] [Ff][Ff][Ff] [EAe][Dd][FA] |!ff! z (A,C [FA])(Ac [Afa]) z z | %48
 !fermata![ac'f'a']6 !fermata!z2 z |] %49
V:5
!ped! !arpeggio!!tenuto!.[C,G,F]3 (D3 C3!ped-up! | B,3 G,3) G,,3 | [C,,C,]6- [C,,C,]3- | %3
 [C,,C,]2 z C3 C,3- |!ped! [C,,C,]3 (^G,3-!ped-up! [C,G,]3) | ([C,A,]3 C3- C) z z | %6
 ([B,C-]3 [A,C]6) | ([B,C-]3 [A,C]6) | ([CD-]3 [B,D]6) | ([CD-]3 [B,D]3) [A,E]3 | %10
!ped! [D,,D,][D,A,][D,A,] [D,A,][D,A,][D,A,] [D,A,]!ped-up![D,A,][D,A,] | [G,,D,]6 [G,=B,]3 | %12
 ([C,-C]3 [C,A,]3) ([C,,C,-]3 |!ped! [F,,C,]3)!mp! (D3!ped-up! C3) | (B,3 A,3 _A,3) | %15
 ((G,3- [A,,G,]3) [D,^F,]3) | [G,,=F,]6- [G,,F,]3 | [C,,C,]6 (C,3- | [C,,C,]3) (C3- [C,C]3) | %19
 [C,,C,]3 (^G,3- [C,G,]3) | ([C,A,]3 C3- C) z z | ([B,C-]3 [A,C]6) | ([B,C-]3 [A,C]6) | %23
 ([CD-]3 [B,D]6) | ([CD-]3 [B,D]3) [A,E]3 | %25
!ped! [D,,D,][D,A,][D,A,] [D,A,][D,A,][D,A,] [D,A,][D,A,]!ped-up![D,A,] | %26
!ped! [G,,D,]6 [G,=B,]3!ped-up! | ([C,-C]3 [C,A,]3) ([C,,C,-]3 | [F,,C,]) z z (F3 E3 | %29
 D3 C3 =B,3) | (_B,3 A,3 _A,3 | G,)G,G, G,G,G, [G,_D][G,D][G,D] | %32
!ped! !///-!_A,3 _D3 !//-!A,3/2 D3/2!ped-up! | !///-!_A,3 _D3 !>![A,D]!>![A,D]!>![A,D] | %34
!ped! !///-!G,3 _D3 !//-!G,3/2 D3/2!ped-up! | !///-!G,3 _D3 [G,D][K:treble]!>![_DF]!>![DF] | %36
 !>![FGB_d]6 fdB |[K:bass] z2 z [G,_D][G,D][G,D] [_A,D][A,D][A,D] | %38
 [C,B,C]3!ped! [C,,C,][C,B,][C,B,] [C,A,]!ped-up![C,A,][C,A,] | ([B,C-]3 [A,C]3) [C,A,]3 | %40
!ped! [C,,C,][CD][CD] [B,D]!ped-up![B,D][B,D] [B,D]3 | %41
!ped! C,[CD][CD]!ped-up! [C,B,]3!ped! [C,,C,]!>![C,C]!>![C,C]!ped-up! | %42
!ped! !>![=B,,,=B,,][A,DF][A,DF] [A,D][A,D][A,D] !>![A,E]!ped-up!!>![A,D] z | %43
!ped! !>![G,,D,]6 !>![G,=B,]!>![G,B,]!>![G,B,]!ped-up! | %44
!ped! [C,,C,]3 [C,G,C]3[K:treble] !arpeggio![CGBe]3!ped-up! | %45
[K:bass]!ped! [F,,,F,,]3[K:treble] [CFA]3 [=B,FA]3!ped-up! | %46
[K:bass]!ped! [F,,C,][F,C][F,C] [C,A,]3 [=B,,F,A,]3!ped-up! | ([F,,,F,,]C,F, C) z z z (F,-C- | %48
!ped! !fermata![F,CA]6) !fermata!z2 z!ped-up! |] %49
V:6
 x9 | x9 | x9 | x9 | x9 | x9 | x9 | x9 | x9 | x9 | x9 | x9 | x9 | x9 | x9 | x9 | x9 | x9 | x9 | %19
 x9 | x9 | x9 | x9 | x9 | x9 | x9 | x9 | x9 | x9 | x9 | x6 [DF][DF][DF] | x9 | x9 | x9 | x9 | x9 | %36
 x9 | x9 | x9 | x9 | x9 | x9 | x9 | x9 | x6!8va(! x3 | x8!8va)! x | x9 | x9 | x9 |] %49

